report_00007_2020-12-11T15:55:29.892Z/bootup-time/comparison/line/10_vs_11.svg

<svg width="640" height="500" xmlns="http://www.w3.org/2000/svg" xmlns:xlink="http://www.w3.org/1999/xlink"><path fill="#fff" d="M0 0h640v500H0z"/><defs><path id="d" stroke-width=".222" stroke="currentColor" d="M-1-1h2v2h-2z"/><path id="b" stroke-width=".222" stroke="currentColor" d="M0-1.33l-1.33 2h2.66z"/><path id="f" stroke-width=".222" stroke="currentColor" d="M0 1.33L1.265.411.782-1.067l-1.564-.009-.483 1.487z"/><use xlink:href="#b" id="c" stroke="currentColor" transform="rotate(180)"/><use xlink:href="#d" id="e" stroke="currentColor" transform="rotate(45)"/><circle id="a" stroke-width=".222" stroke="currentColor" cx="0" cy="0" r="1"/></defs><g fill="none" color="#000" stroke="currentColor"><path stroke="#000" d="M45.6 352.2h9m560.4 0h-9"/><text transform="translate(37.3 356.1)" stroke="none" fill="#000" font-family="Arial" font-size="12" text-anchor="end"><tspan>15</tspan></text></g><g fill="none" color="#000" stroke="currentColor"><path stroke="#000" d="M45.6 303.7h9m560.4 0h-9"/><text transform="translate(37.3 307.6)" stroke="none" fill="#000" font-family="Arial" font-size="12" text-anchor="end"><tspan>20</tspan></text></g><g fill="none" color="#000" stroke="currentColor"><path stroke="#000" d="M45.6 255.1h9m560.4 0h-9"/><text transform="translate(37.3 259)" stroke="none" fill="#000" font-family="Arial" font-size="12" text-anchor="end"><tspan>25</tspan></text></g><g fill="none" color="#000" stroke="currentColor"><path stroke="#000" d="M45.6 206.6h9m560.4 0h-9"/><text transform="translate(37.3 210.5)" stroke="none" fill="#000" font-family="Arial" font-size="12" text-anchor="end"><tspan>30</tspan></text></g><g fill="none" color="#000" stroke="currentColor"><path stroke="#000" d="M45.6 158.1h9m560.4 0h-9"/><text transform="translate(37.3 162)" stroke="none" fill="#000" font-family="Arial" font-size="12" text-anchor="end"><tspan>35</tspan></text></g><g fill="none" color="#000" stroke="currentColor"><path stroke="#000" d="M45.6 109.5h9m560.4 0h-9"/><text transform="translate(37.3 113.4)" stroke="none" fill="#000" font-family="Arial" font-size="12" text-anchor="end"><tspan>40</tspan></text></g><g fill="none" color="#000" stroke="currentColor"><path stroke="#000" d="M45.6 61h9M615 61h-9"/><text transform="translate(37.3 64.9)" stroke="none" fill="#000" font-family="Arial" font-size="12" text-anchor="end"><tspan>45</tspan></text></g><g fill="none" color="#000" stroke="currentColor"><path stroke="#000" d="M45.6 392v-9m0-364.9v9"/><text transform="translate(45.6 413.9)" stroke="none" fill="#000" font-family="Arial" font-size="12" text-anchor="middle"><tspan>0</tspan></text></g><g fill="none" color="#000" stroke="currentColor"><path stroke="#000" d="M103.1 392v-9m0-364.9v9"/><text transform="translate(103.1 413.9)" stroke="none" fill="#000" font-family="Arial" font-size="12" text-anchor="middle"><tspan>10</tspan></text></g><g fill="none" color="#000" stroke="currentColor"><path stroke="#000" d="M160.6 392v-9m0-364.9v9"/><text transform="translate(160.6 413.9)" stroke="none" fill="#000" font-family="Arial" font-size="12" text-anchor="middle"><tspan>20</tspan></text></g><g fill="none" color="#000" stroke="currentColor"><path stroke="#000" d="M218.1 392v-9m0-364.9v9"/><text transform="translate(218.1 413.9)" stroke="none" fill="#000" font-family="Arial" font-size="12" text-anchor="middle"><tspan>30</tspan></text></g><g fill="none" color="#000" stroke="currentColor"><path stroke="#000" d="M275.7 392v-9m0-364.9v9"/><text transform="translate(275.7 413.9)" stroke="none" fill="#000" font-family="Arial" font-size="12" text-anchor="middle"><tspan>40</tspan></text></g><g fill="none" color="#000" stroke="currentColor"><path stroke="#000" d="M333.2 392v-9m0-364.9v9"/><text transform="translate(333.2 413.9)" stroke="none" fill="#000" font-family="Arial" font-size="12" text-anchor="middle"><tspan>50</tspan></text></g><g fill="none" color="#000" stroke="currentColor"><path stroke="#000" d="M390.7 392v-9m0-364.9v9"/><text transform="translate(390.7 413.9)" stroke="none" fill="#000" font-family="Arial" font-size="12" text-anchor="middle"><tspan>60</tspan></text></g><g fill="none" color="#000" stroke="currentColor"><path stroke="#000" d="M448.2 392v-9m0-364.9v9"/><text transform="translate(448.2 413.9)" stroke="none" fill="#000" font-family="Arial" font-size="12" text-anchor="middle"><tspan>70</tspan></text></g><g fill="none" color="#000" stroke="currentColor"><path stroke="#000" d="M505.7 392v-9m0-364.9v9"/><text transform="translate(505.7 413.9)" stroke="none" fill="#000" font-family="Arial" font-size="12" text-anchor="middle"><tspan>80</tspan></text></g><g fill="none" color="#000" stroke="currentColor"><path stroke="#000" d="M563.2 392v-9m0-364.9v9"/><text transform="translate(563.2 413.9)" stroke="none" fill="#000" font-family="Arial" font-size="12" text-anchor="middle"><tspan>90</tspan></text></g><path stroke="#000" d="M45.6 18.1V392H615V18.1H45.6z" fill="none" color="#000"/><text transform="translate(479.3 431.9)" stroke="none" fill="#000" font-family="Arial" font-size="12" text-anchor="end" color="#000"><tspan>pages+cached+noexternal+nojs</tspan></text><path stroke="#9400D3" d="M487.6 428h42.2M45.6 368.3l5.8 3.4 5.7-4.1 5.8-13.8 5.7 7 5.8 7.2 5.7 6.7 5.8-5.8 5.7-4.2 5.8-5.3 5.7 11.5 5.8-14.4 5.7 19.5 5.8-16.2 5.7-.8 5.8 6.2 5.7-1.5 5.8 2.2 5.7 2.6 5.8.8 5.7-6.8 5.8 5.2 5.7-2.3 5.8 5.5 5.7-10 5.8 10.2 5.7-8.1 5.8-5.1 5.7 8.9 5.8-1.2 5.7-13.8 5.8 22.2 5.7-23.6 5.8 18.8 5.8-6.9 5.7.4 5.8 3 5.7 3.8 5.8 3.4 5.7-.9 5.8-9.4 5.7-3.8 5.8 20.3 5.7-20.5 5.8 4.5 5.7 4.5 5.8 13.2 5.7-7.1 5.8-13.9 5.7-3.9 5.8 14.2 5.7-7.7 5.8-.7 5.7-7 5.8 3.6 5.7 11.9 5.8-1.9 5.7 3.3 5.8 4.2 5.7 9 5.8-30.2 5.7 1.9 5.8 5.2 5.7 1.3 5.8-7.5 5.7 3.1 5.8 8.4 5.8-6 5.7 1.1 5.8 5.1 5.7-6.5 5.8 18.9 5.7-18 5.8 18.9 5.7 1.4 5.8-3.4 5.7-14.3 5.8 14 5.7 3.2 5.8-16.2 5.7-2.9 5.8 4 5.7-.5L523 380l5.7-20.7 5.8 7.9 5.7 14.8 5.8-17.4 5.7 15.6 5.8-13.5 5.7-.8 5.8 2.5 5.7 7 5.8-5 5.7 6 5.8.5 5.7-14.3 5.8 14.2 5.7-11.6 5.8 12.2" fill="none" color="#000"/><text transform="translate(479.3 449.9)" stroke="none" fill="#000" font-family="Arial" font-size="12" text-anchor="end" color="#000"><tspan>pages+cached+noexternal+nofonts+nosvg+noimg</tspan></text><path stroke="#009E73" d="M487.6 446h42.2M45.6 116.4l5.8 11.9 5.7-.7 5.8 3.8 5.7 1.4 5.8-8.8 5.7-10.9 5.8 3.7 5.7-5.7 5.8 10.2 5.7-26.7 5.8 25.3 5.7-16.5 5.8 9.8 5.7-5.7 5.8 28.4 5.7-16.7 5.8 2.1 5.7-6.1 5.8-3 5.7 8.6 5.8 1.8 5.7-28.4 5.8 23.5 5.7 18.8 5.8-35 5.7 31.7 5.8-11.8 5.7-13.4 5.8 22.2 5.7-1.1 5.8-26.6 5.7 11.4 5.8 1.9 5.8 7.5 5.7-4.2 5.8 2.4 5.7 8.2 5.8-18.5 5.7-.9 5.8-2 5.7 3.7 5.8 11.5 5.7 7.9 5.8-16.7 5.7-6.5 5.8 17.5 5.7-15.5 5.8 21.6 5.7-13.4 5.8 10.2 5.7-4.5 5.8-47.9 5.7 34.6 5.8 13.6 5.7-2.4h5.8l5.7-8.8 5.8 15.2 5.7-2.3 5.8-33.3 5.7 26.9 5.8-13.4 5.7 3.6 5.8-6.4 5.7 29.1 5.8-31.1 5.8 38.8 5.7-25.8 5.8-16.5 5.7-23.6L454 121l5.7-6.4 5.8-89.3 5.7 87 5.8 5 5.7-5.4 5.8 21.3 5.7-24.8 5.8 24.3 5.7-13.5 5.8-6.2 5.7 13.3 5.8 4.1 5.7-22.5 5.8 7.9 5.7.1 5.8 7.7 5.7 1.4 5.8-2.1 5.7 2.4 5.8-15.1 5.7.5 5.8-10.1 5.7 19.9 5.8 12.6 5.7-25.1 5.8 21.7 5.7-21.4 5.8 7.2" fill="none" color="#000"/><text transform="translate(479.3 467.9)" stroke="none" fill="#000" font-family="Arial" font-size="12" text-anchor="end" color="#000"><tspan>score p10=1282</tspan></text><path stroke="#56B4E9" d="M487.6 464h42.2" fill="none" color="#000"/><g><text transform="translate(479.3 485.9)" stroke="none" fill="#000" font-family="Arial" font-size="12" text-anchor="end" color="#000"><tspan>score median=3500</tspan></text><path stroke="#E69F00" d="M487.6 482h42.2" fill="none" color="#000"/></g><g fill="none" color="#000" stroke="currentColor"><path stroke="#000" d="M45.6 18.1V392H615V18.1H45.6z"/></g></svg>

<?xml version="1.0" encoding="utf-8"  standalone="no"?>
<svg 
 width="640" height="500"
 viewBox="0 0 640 500"
 xmlns="http://www.w3.org/2000/svg"
 xmlns:xlink="http://www.w3.org/1999/xlink"
>

<title>Gnuplot</title>
<desc>Produced by GNUPLOT 5.4 patchlevel 0 </desc>

<g id="gnuplot_canvas">

<rect x="0" y="0" width="640" height="500" fill="#ffffff"/>
<defs>

	<circle id='gpDot' r='0.5' stroke-width='0.5' stroke='currentColor'/>
	<path id='gpPt0' stroke-width='0.222' stroke='currentColor' d='M-1,0 h2 M0,-1 v2'/>
	<path id='gpPt1' stroke-width='0.222' stroke='currentColor' d='M-1,-1 L1,1 M1,-1 L-1,1'/>
	<path id='gpPt2' stroke-width='0.222' stroke='currentColor' d='M-1,0 L1,0 M0,-1 L0,1 M-1,-1 L1,1 M-1,1 L1,-1'/>
	<rect id='gpPt3' stroke-width='0.222' stroke='currentColor' x='-1' y='-1' width='2' height='2'/>
	<rect id='gpPt4' stroke-width='0.222' stroke='currentColor' fill='currentColor' x='-1' y='-1' width='2' height='2'/>
	<circle id='gpPt5' stroke-width='0.222' stroke='currentColor' cx='0' cy='0' r='1'/>
	<use xlink:href='#gpPt5' id='gpPt6' fill='currentColor' stroke='none'/>
	<path id='gpPt7' stroke-width='0.222' stroke='currentColor' d='M0,-1.33 L-1.33,0.67 L1.33,0.67 z'/>
	<use xlink:href='#gpPt7' id='gpPt8' fill='currentColor' stroke='none'/>
	<use xlink:href='#gpPt7' id='gpPt9' stroke='currentColor' transform='rotate(180)'/>
	<use xlink:href='#gpPt9' id='gpPt10' fill='currentColor' stroke='none'/>
	<use xlink:href='#gpPt3' id='gpPt11' stroke='currentColor' transform='rotate(45)'/>
	<use xlink:href='#gpPt11' id='gpPt12' fill='currentColor' stroke='none'/>
	<path id='gpPt13' stroke-width='0.222' stroke='currentColor' d='M0,1.330 L1.265,0.411 L0.782,-1.067 L-0.782,-1.076 L-1.265,0.411 z'/>
	<use xlink:href='#gpPt13' id='gpPt14' fill='currentColor' stroke='none'/>
	<filter id='textbox' filterUnits='objectBoundingBox' x='0' y='0' height='1' width='1'>
	  <feFlood flood-color='#FFFFFF' flood-opacity='1' result='bgnd'/>
	  <feComposite in='SourceGraphic' in2='bgnd' operator='atop'/>
	</filter>
	<filter id='greybox' filterUnits='objectBoundingBox' x='0' y='0' height='1' width='1'>
	  <feFlood flood-color='lightgrey' flood-opacity='1' result='grey'/>
	  <feComposite in='SourceGraphic' in2='grey' operator='atop'/>
	</filter>
</defs>
<g fill="none" color="#FFFFFF" stroke="black" stroke-width="1.00" stroke-linecap="butt" stroke-linejoin="miter">
</g>
<g fill="none" color="black" stroke="currentColor" stroke-width="1.00" stroke-linecap="butt" stroke-linejoin="miter">
	<path stroke='black'  d='M45.6,352.2 L54.6,352.2 M615.0,352.2 L606.0,352.2  '/>	<g transform="translate(37.3,356.1)" stroke="none" fill="black" font-family="Arial" font-size="12.00"  text-anchor="end">
		<text><tspan font-family="Arial" > 15</tspan></text>
	</g>
</g>
<g fill="none" color="black" stroke="currentColor" stroke-width="1.00" stroke-linecap="butt" stroke-linejoin="miter">
	<path stroke='black'  d='M45.6,303.7 L54.6,303.7 M615.0,303.7 L606.0,303.7  '/>	<g transform="translate(37.3,307.6)" stroke="none" fill="black" font-family="Arial" font-size="12.00"  text-anchor="end">
		<text><tspan font-family="Arial" > 20</tspan></text>
	</g>
</g>
<g fill="none" color="black" stroke="currentColor" stroke-width="1.00" stroke-linecap="butt" stroke-linejoin="miter">
	<path stroke='black'  d='M45.6,255.1 L54.6,255.1 M615.0,255.1 L606.0,255.1  '/>	<g transform="translate(37.3,259.0)" stroke="none" fill="black" font-family="Arial" font-size="12.00"  text-anchor="end">
		<text><tspan font-family="Arial" > 25</tspan></text>
	</g>
</g>
<g fill="none" color="black" stroke="currentColor" stroke-width="1.00" stroke-linecap="butt" stroke-linejoin="miter">
	<path stroke='black'  d='M45.6,206.6 L54.6,206.6 M615.0,206.6 L606.0,206.6  '/>	<g transform="translate(37.3,210.5)" stroke="none" fill="black" font-family="Arial" font-size="12.00"  text-anchor="end">
		<text><tspan font-family="Arial" > 30</tspan></text>
	</g>
</g>
<g fill="none" color="black" stroke="currentColor" stroke-width="1.00" stroke-linecap="butt" stroke-linejoin="miter">
	<path stroke='black'  d='M45.6,158.1 L54.6,158.1 M615.0,158.1 L606.0,158.1  '/>	<g transform="translate(37.3,162.0)" stroke="none" fill="black" font-family="Arial" font-size="12.00"  text-anchor="end">
		<text><tspan font-family="Arial" > 35</tspan></text>
	</g>
</g>
<g fill="none" color="black" stroke="currentColor" stroke-width="1.00" stroke-linecap="butt" stroke-linejoin="miter">
	<path stroke='black'  d='M45.6,109.5 L54.6,109.5 M615.0,109.5 L606.0,109.5  '/>	<g transform="translate(37.3,113.4)" stroke="none" fill="black" font-family="Arial" font-size="12.00"  text-anchor="end">
		<text><tspan font-family="Arial" > 40</tspan></text>
	</g>
</g>
<g fill="none" color="black" stroke="currentColor" stroke-width="1.00" stroke-linecap="butt" stroke-linejoin="miter">
	<path stroke='black'  d='M45.6,61.0 L54.6,61.0 M615.0,61.0 L606.0,61.0  '/>	<g transform="translate(37.3,64.9)" stroke="none" fill="black" font-family="Arial" font-size="12.00"  text-anchor="end">
		<text><tspan font-family="Arial" > 45</tspan></text>
	</g>
</g>
<g fill="none" color="black" stroke="currentColor" stroke-width="1.00" stroke-linecap="butt" stroke-linejoin="miter">
	<path stroke='black'  d='M45.6,392.0 L45.6,383.0 M45.6,18.1 L45.6,27.1  '/>	<g transform="translate(45.6,413.9)" stroke="none" fill="black" font-family="Arial" font-size="12.00"  text-anchor="middle">
		<text><tspan font-family="Arial" > 0</tspan></text>
	</g>
</g>
<g fill="none" color="black" stroke="currentColor" stroke-width="1.00" stroke-linecap="butt" stroke-linejoin="miter">
	<path stroke='black'  d='M103.1,392.0 L103.1,383.0 M103.1,18.1 L103.1,27.1  '/>	<g transform="translate(103.1,413.9)" stroke="none" fill="black" font-family="Arial" font-size="12.00"  text-anchor="middle">
		<text><tspan font-family="Arial" > 10</tspan></text>
	</g>
</g>
<g fill="none" color="black" stroke="currentColor" stroke-width="1.00" stroke-linecap="butt" stroke-linejoin="miter">
	<path stroke='black'  d='M160.6,392.0 L160.6,383.0 M160.6,18.1 L160.6,27.1  '/>	<g transform="translate(160.6,413.9)" stroke="none" fill="black" font-family="Arial" font-size="12.00"  text-anchor="middle">
		<text><tspan font-family="Arial" > 20</tspan></text>
	</g>
</g>
<g fill="none" color="black" stroke="currentColor" stroke-width="1.00" stroke-linecap="butt" stroke-linejoin="miter">
	<path stroke='black'  d='M218.1,392.0 L218.1,383.0 M218.1,18.1 L218.1,27.1  '/>	<g transform="translate(218.1,413.9)" stroke="none" fill="black" font-family="Arial" font-size="12.00"  text-anchor="middle">
		<text><tspan font-family="Arial" > 30</tspan></text>
	</g>
</g>
<g fill="none" color="black" stroke="currentColor" stroke-width="1.00" stroke-linecap="butt" stroke-linejoin="miter">
	<path stroke='black'  d='M275.7,392.0 L275.7,383.0 M275.7,18.1 L275.7,27.1  '/>	<g transform="translate(275.7,413.9)" stroke="none" fill="black" font-family="Arial" font-size="12.00"  text-anchor="middle">
		<text><tspan font-family="Arial" > 40</tspan></text>
	</g>
</g>
<g fill="none" color="black" stroke="currentColor" stroke-width="1.00" stroke-linecap="butt" stroke-linejoin="miter">
	<path stroke='black'  d='M333.2,392.0 L333.2,383.0 M333.2,18.1 L333.2,27.1  '/>	<g transform="translate(333.2,413.9)" stroke="none" fill="black" font-family="Arial" font-size="12.00"  text-anchor="middle">
		<text><tspan font-family="Arial" > 50</tspan></text>
	</g>
</g>
<g fill="none" color="black" stroke="currentColor" stroke-width="1.00" stroke-linecap="butt" stroke-linejoin="miter">
	<path stroke='black'  d='M390.7,392.0 L390.7,383.0 M390.7,18.1 L390.7,27.1  '/>	<g transform="translate(390.7,413.9)" stroke="none" fill="black" font-family="Arial" font-size="12.00"  text-anchor="middle">
		<text><tspan font-family="Arial" > 60</tspan></text>
	</g>
</g>
<g fill="none" color="black" stroke="currentColor" stroke-width="1.00" stroke-linecap="butt" stroke-linejoin="miter">
	<path stroke='black'  d='M448.2,392.0 L448.2,383.0 M448.2,18.1 L448.2,27.1  '/>	<g transform="translate(448.2,413.9)" stroke="none" fill="black" font-family="Arial" font-size="12.00"  text-anchor="middle">
		<text><tspan font-family="Arial" > 70</tspan></text>
	</g>
</g>
<g fill="none" color="black" stroke="currentColor" stroke-width="1.00" stroke-linecap="butt" stroke-linejoin="miter">
	<path stroke='black'  d='M505.7,392.0 L505.7,383.0 M505.7,18.1 L505.7,27.1  '/>	<g transform="translate(505.7,413.9)" stroke="none" fill="black" font-family="Arial" font-size="12.00"  text-anchor="middle">
		<text><tspan font-family="Arial" > 80</tspan></text>
	</g>
</g>
<g fill="none" color="black" stroke="currentColor" stroke-width="1.00" stroke-linecap="butt" stroke-linejoin="miter">
	<path stroke='black'  d='M563.2,392.0 L563.2,383.0 M563.2,18.1 L563.2,27.1  '/>	<g transform="translate(563.2,413.9)" stroke="none" fill="black" font-family="Arial" font-size="12.00"  text-anchor="middle">
		<text><tspan font-family="Arial" > 90</tspan></text>
	</g>
</g>
<g fill="none" color="black" stroke="currentColor" stroke-width="1.00" stroke-linecap="butt" stroke-linejoin="miter">
</g>
<g fill="none" color="black" stroke="currentColor" stroke-width="1.00" stroke-linecap="butt" stroke-linejoin="miter">
	<path stroke='black'  d='M45.6,18.1 L45.6,392.0 L615.0,392.0 L615.0,18.1 L45.6,18.1 Z  '/></g>
<g fill="none" color="black" stroke="currentColor" stroke-width="1.00" stroke-linecap="butt" stroke-linejoin="miter">
</g>
	<g id="gnuplot_plot_1" ><title>pages+cached+noexternal+nojs</title>
<g fill="none" color="black" stroke="currentColor" stroke-width="1.00" stroke-linecap="butt" stroke-linejoin="miter">
	<g transform="translate(479.3,431.9)" stroke="none" fill="black" font-family="Arial" font-size="12.00"  text-anchor="end">
		<text><tspan font-family="Arial" >pages+cached+noexternal+nojs</tspan></text>
	</g>
</g>
<g fill="none" color="black" stroke="currentColor" stroke-width="1.00" stroke-linecap="butt" stroke-linejoin="miter">
	<path stroke='rgb(148,   0, 211)'  d='M487.6,428.0 L529.8,428.0 M45.6,368.3 L51.4,371.7 L57.1,367.6 L62.9,353.8 L68.6,360.8 L74.4,368.0
		L80.1,374.7 L85.9,368.9 L91.6,364.7 L97.4,359.4 L103.1,370.9 L108.9,356.5 L114.6,376.0 L120.4,359.8
		L126.1,359.0 L131.9,365.2 L137.6,363.7 L143.4,365.9 L149.1,368.5 L154.9,369.3 L160.6,362.5 L166.4,367.7
		L172.1,365.4 L177.9,370.9 L183.6,360.9 L189.4,371.1 L195.1,363.0 L200.9,357.9 L206.6,366.8 L212.4,365.6
		L218.1,351.8 L223.9,374.0 L229.6,350.4 L235.4,369.2 L241.2,362.3 L246.9,362.7 L252.7,365.7 L258.4,369.5
		L264.2,372.9 L269.9,372.0 L275.7,362.6 L281.4,358.8 L287.2,379.1 L292.9,358.6 L298.7,363.1 L304.4,367.6
		L310.2,380.8 L315.9,373.7 L321.7,359.8 L327.4,355.9 L333.2,370.1 L338.9,362.4 L344.7,361.7 L350.4,354.7
		L356.2,358.3 L361.9,370.2 L367.7,368.3 L373.4,371.6 L379.2,375.8 L384.9,384.8 L390.7,354.6 L396.4,356.5
		L402.2,361.7 L407.9,363.0 L413.7,355.5 L419.4,358.6 L425.2,367.0 L431.0,361.0 L436.7,362.1 L442.5,367.2
		L448.2,360.7 L454.0,379.6 L459.7,361.6 L465.5,380.5 L471.2,381.9 L477.0,378.5 L482.7,364.2 L488.5,378.2
		L494.2,381.4 L500.0,365.2 L505.7,362.3 L511.5,366.3 L517.2,365.8 L523.0,380.0 L528.7,359.3 L534.5,367.2
		L540.2,382.0 L546.0,364.6 L551.7,380.2 L557.5,366.7 L563.2,365.9 L569.0,368.4 L574.7,375.4 L580.5,370.4
		L586.2,376.4 L592.0,376.9 L597.7,362.6 L603.5,376.8 L609.2,365.2 L615.0,377.4  '/></g>
	</g>
	<g id="gnuplot_plot_2" ><title>pages+cached+noexternal+nofonts+nosvg+noimg</title>
<g fill="none" color="black" stroke="currentColor" stroke-width="1.00" stroke-linecap="butt" stroke-linejoin="miter">
	<g transform="translate(479.3,449.9)" stroke="none" fill="black" font-family="Arial" font-size="12.00"  text-anchor="end">
		<text><tspan font-family="Arial" >pages+cached+noexternal+nofonts+nosvg+noimg</tspan></text>
	</g>
</g>
<g fill="none" color="black" stroke="currentColor" stroke-width="1.00" stroke-linecap="butt" stroke-linejoin="miter">
	<path stroke='rgb(  0, 158, 115)'  d='M487.6,446.0 L529.8,446.0 M45.6,116.4 L51.4,128.3 L57.1,127.6 L62.9,131.4 L68.6,132.8 L74.4,124.0
		L80.1,113.1 L85.9,116.8 L91.6,111.1 L97.4,121.3 L103.1,94.6 L108.9,119.9 L114.6,103.4 L120.4,113.2
		L126.1,107.5 L131.9,135.9 L137.6,119.2 L143.4,121.3 L149.1,115.2 L154.9,112.2 L160.6,120.8 L166.4,122.6
		L172.1,94.2 L177.9,117.7 L183.6,136.5 L189.4,101.5 L195.1,133.2 L200.9,121.4 L206.6,108.0 L212.4,130.2
		L218.1,129.1 L223.9,102.5 L229.6,113.9 L235.4,115.8 L241.2,123.3 L246.9,119.1 L252.7,121.5 L258.4,129.7
		L264.2,111.2 L269.9,110.3 L275.7,108.3 L281.4,112.0 L287.2,123.5 L292.9,131.4 L298.7,114.7 L304.4,108.2
		L310.2,125.7 L315.9,110.2 L321.7,131.8 L327.4,118.4 L333.2,128.6 L338.9,124.1 L344.7,76.2 L350.4,110.8
		L356.2,124.4 L361.9,122.0 L367.7,122.0 L373.4,113.2 L379.2,128.4 L384.9,126.1 L390.7,92.8 L396.4,119.7
		L402.2,106.3 L407.9,109.9 L413.7,103.5 L419.4,132.6 L425.2,101.5 L431.0,140.3 L436.7,114.5 L442.5,98.0
		L448.2,74.4 L454.0,121.0 L459.7,114.6 L465.5,25.3 L471.2,112.3 L477.0,117.3 L482.7,111.9 L488.5,133.2
		L494.2,108.4 L500.0,132.7 L505.7,119.2 L511.5,113.0 L517.2,126.3 L523.0,130.4 L528.7,107.9 L534.5,115.8
		L540.2,115.9 L546.0,123.6 L551.7,125.0 L557.5,122.9 L563.2,125.3 L569.0,110.2 L574.7,110.7 L580.5,100.6
		L586.2,120.5 L592.0,133.1 L597.7,108.0 L603.5,129.7 L609.2,108.3 L615.0,115.5  '/></g>
	</g>
	<g id="gnuplot_plot_3" ><title>score p10=1282</title>
<g fill="none" color="black" stroke="currentColor" stroke-width="1.00" stroke-linecap="butt" stroke-linejoin="miter">
	<g transform="translate(479.3,467.9)" stroke="none" fill="black" font-family="Arial" font-size="12.00"  text-anchor="end">
		<text><tspan font-family="Arial" >score p10=1282</tspan></text>
	</g>
</g>
<g fill="none" color="black" stroke="currentColor" stroke-width="1.00" stroke-linecap="butt" stroke-linejoin="miter">
	<path stroke='rgb( 86, 180, 233)'  d='M487.6,464.0 L529.8,464.0  '/></g>
	</g>
	<g id="gnuplot_plot_4" ><title>score median=3500</title>
<g fill="none" color="black" stroke="currentColor" stroke-width="1.00" stroke-linecap="butt" stroke-linejoin="miter">
	<g transform="translate(479.3,485.9)" stroke="none" fill="black" font-family="Arial" font-size="12.00"  text-anchor="end">
		<text><tspan font-family="Arial" >score median=3500</tspan></text>
	</g>
</g>
<g fill="none" color="black" stroke="currentColor" stroke-width="1.00" stroke-linecap="butt" stroke-linejoin="miter">
	<path stroke='rgb(230, 159,   0)'  d='M487.6,482.0 L529.8,482.0  '/></g>
	</g>
<g fill="none" color="#FFFFFF" stroke="rgb(230, 159,   0)" stroke-width="2.00" stroke-linecap="butt" stroke-linejoin="miter">
</g>
<g fill="none" color="black" stroke="currentColor" stroke-width="2.00" stroke-linecap="butt" stroke-linejoin="miter">
</g>
<g fill="none" color="black" stroke="black" stroke-width="1.00" stroke-linecap="butt" stroke-linejoin="miter">
</g>
<g fill="none" color="black" stroke="currentColor" stroke-width="1.00" stroke-linecap="butt" stroke-linejoin="miter">
	<path stroke='black'  d='M45.6,18.1 L45.6,392.0 L615.0,392.0 L615.0,18.1 L45.6,18.1 Z  '/></g>
<g fill="none" color="black" stroke="currentColor" stroke-width="1.00" stroke-linecap="butt" stroke-linejoin="miter">
</g>
</g>
</svg>
